X:1
T:Love So Abundant
T:Love So Abundant
T:Grant Colfax Tullar
T:Grant Colfax Tullar, 1907
T:Public Domain Courtesy of the Cyber Hymnal™
T:Public Domain Courtesy of the Cyber Hymnal™
C:Grant Colfax Tullar
Z:Public Domain
Z:Courtesy of the Cyber Hymnal™
%%score ( 1 2 ) 3
L:1/8
Q:1/4=110
M:3/4
K:Ab
V:1 treble 
V:2 treble 
V:3 bass 
V:1
 [Ec]2 [Fd]2 [C=A]2 | [Ec]2 [DB]4 | [DB]2 [Ec]2 [B,G]2 | [DB]2 [CA]4 | [FA]2 [EG]2 [DF]2 | %5
w: 1.~Je- sus the|Sav- ior,|dy- ing on|Cal- v’ry,|Pur- chased my|
w: 2.~O what a|Sav- ior,|ten- der and|lov- ing,|Guard- ing my|
w: 3.~Con- stant com-|pan- ion,|leav- ing me|ne- ver,|Bid- ding me|
 [CE]2 [Ec]4 | [=DB]2 [DF]2 [Dc]2 | [DB]6 | [Ec]2 [Fd]2 [C=A]2 | [Ec]2 [DB]4 | [DB]2 [Ec]2 [B,G]2 | %11
w: par- don,|set- ting me|free.|Love so a-|bun- dant,|should I not|
w: foot- steps|lest I should|stray;|Love so a-|bun- dant,|lead- ing me|
w: fol- low|close by Thy|side;|He is my|re- fuge,|safe- ly I|
 [DB]2 [CA]4 | [FA]2 [EG]2 [DF]2 | [CE]2 [Ec]4 | [=DB]2 [DF]2 [_DG]2 | [CA]6 || %16
w: serve Him,|When He so|glad- ly|suf- fered for|me?|
w: ev- er,|Out of the|dark- ness|in- to the|day.|
w: shel- ter,|Know- ing He|loves me,|what- e’er be-|tide.|
[Q:1/4=103]"^Refrain" c3- c AF | E3- [CE]2 z | d3- d c=B | c3- [Ec]2 z | e3- e cA | d3- d AB | %22
w: ||||||
w: Lord, * I am|Thine, Sav-|* * ior di-|vine, O|* * what a|joy * Just to|
w: ||||||
 (z c) BE x3 | (z [CA]3) x2 |] %24
w: ||
w: * know, Thou||
w: ||
V:2
 x6 | x6 | x6 | x6 | x6 | x6 | x6 | x6 | x6 | x6 | x6 | x6 | x6 | x6 | x6 | x6 || (EA F E2) x | %17
 CC C x3 | (EG F E2) x | EA F x3 | (Ac B A2) x | (FF F F2) x | (c3 E E D2) | A3 C D x |] %24
V:3
 (A,,E,) A,2 E,2 | (E,,E,) (G,2 E,2) | (E,,E,) G,2 E,2 | (A,,E,) (A,2 E,2) | (C,A,) D2 A,2 | %5
w: ~ * ~ ~|~ * ~ *|~ * ~ ~|~ * ~ *|~ * ~ ~|
 (A,,E,) (A,2 E,2) | (B,,F,) B,2 A,2 | (E,G, B,2 E,2) | (A,,E,) A,2 E,2 | (E,,E,) (G,2 E,2) | %10
w: ~ * ~ *|~ * ~ ~|~ * * *|~ * ~ ~|~ * ~ *|
 (E,,E,) G,2 E,2 | (A,,E,) (A,2 E,2) | (D,A,) D2 A,2 | (A,,E,) (A,2 E,2) | %14
w: ~ * ~ ~|~ * ~ *|~ * ~ ~|~ * ~ *|
 [B,,B,]2 [B,,B,]2 [E,B,]2 | [A,,A,]6 || [A,,A,][A,,A,] [A,,A,] [A,,A,]2 z | %17
w: ~ ~ ~|~|Lord, I am Thine,|
 [A,,E,][A,,A,] [A,,F,] [A,,E,]2 z | [E,G,][E,B,] [E,A,] [E,G,]2 z | %19
w: Lord, I am Thine,|Sav- ior di- vine,|
 [A,,A,][A,,A,] [A,,A,] [A,,A,]2 z | [A,C][A,E] [A,D] [A,C]2 z | [D,A,][D,G,] [D,A,] [D,D]2 z | %22
w: Sav- ior di- vine|O what a joy,|O what a joy,|
 z [E,A,] [E,A,] [E,G,]2 z x | z [A,,E,] [A,,F,] [A,,E,]3 |] %24
w: Just to know|Thou art mine.|

